packages/core/src/svgs/tokens/mono/NEST.svg

<svg width="24" height="24" viewBox="0 0 24 24" fill="none" xmlns="http://www.w3.org/2000/svg">
<path d="M21.7591 9.22559C22.7676 4.43782 20.542 2 16.342 2C13.8199 2 11.7221 2.92499 9.82776 4.64569L10.1943 2.97642C10.1943 2.97642 9.52127 2.71428 8.17637 2.71428C6.70708 2.71428 5.99067 2.97642 5.99067 2.97642L2 21.7076C2 21.7076 2.58856 21.9998 4.05711 21.9998C5.40281 21.9998 6.19996 21.7076 6.19996 21.7076L9.11136 8.0935C10.5806 6.41067 12.5334 5.5714 14.3834 5.5714C17.0742 5.5714 18.0592 6.7478 17.5592 9.10142L14.8555 21.7083C14.8555 21.7083 15.4842 21.9998 16.9127 21.9998C18.2983 21.9998 19.0555 21.7076 19.0555 21.7076L21.7591 9.22559Z" fill="white"/>
</svg>

<svg xmlns="http://www.w3.org/2000/svg" width="24" height="24" fill="none" viewBox="0 0 24 24">
    <path fill="#fff" d="M21.76 9.226C22.767 4.438 20.541 2 16.341 2c-2.522 0-4.62.925-6.514 2.646l.366-1.67s-.673-.262-2.018-.262c-1.469 0-2.185.262-2.185.262L2 21.708S2.589 22 4.057 22c1.346 0 2.143-.292 2.143-.292L9.111 8.094c1.47-1.683 3.422-2.523 5.272-2.523 2.691 0 3.676 1.177 3.176 3.53l-2.704 12.607s.63.292 2.058.292c1.385 0 2.142-.292 2.142-.292z"/>
</svg>
